X:3057
T:Hattemageren
T:The hatter
C:anon.
O:Denmark
F:http://abc.musicaviva.com/tunes/denmark/hattemageren/hattemageren-1.abc
M:2/4
L:1/8
K:C
G2|:"C"cGEG|"C"c2e2|"G"dBGB|"G"d2 "A7"e2|"Dm"f2 ag|"Dm"fedc|"G7"BGAB|[1"C"c2G2:|[2"C"c2 z2||
|:"G7"GGGG|"G7"G2AB|"C"c2"G7"d2|"C"e2c2|"G7"GGGG|"G7"G2AB|"C"ce"G7"dB|[1"C"c2 z2:|[2"c"c2 ef||
|:"C"gece|"Dm"agfe|"G7"dcBd|"C"cdef|"C"gece|"Dm"agfe|"G7"dcBd|[1"C"c2 ef|[2"C"c2 G2||
|:"C"cGEG|"C"c2e2|"G"dBGB|"G"d2 "A7"e2|"Dm"f2 ag|"Dm"fedc|"G7"BGAB|[1"C"c2G2:|[2"C"c2|]
W:
W:
W:  From Musica Viva - http://www.musicaviva.com
W:  the Internet center for free sheet music downloads.
